X:28
T:Oak Tree, The
M:C|
L:1/8
R:reel
A:Donegal
N:finish with first part
K:D
AG|"§"(3FED AD FDAD|FDAF GEFD|A,A,A,G, A2, A,G,|A,G,A,B, =CDEG|FDAD FDAD
|FAAF GFED|(3Bcd ef gece|d2 dc d2 :|eg
|:fB (3BBB fa^ge|fece faed|cA (3AAA fAeA|cAea fece|fB (3BBB fa^ge|fece f
aec|ABce a^gae|1faed cAce:|2faed cABc||
(3ddd fd (3ddd fd|(3ccc ec (3ccc ec|(3ddd fd d2 fg|(3agf ge dcBA|d2 fd A
dfd|c2 ec Acec|d2 fd Adfg|afge dBA" §"G||
